projects/seb-pictograms/svg/regular/108-Picto-Regular_black.svg

<svg xmlns="http://www.w3.org/2000/svg" viewBox="0 0 170 170"><path d="M159 75.5v40.2h-9.3v-12.9a29.2 29.2 0 00-29.2-29.2H66.8a3 3 0 00-3 3v39.1H11V51.4H5V165h6v-9.6h148v9.6h6V75.5zm-89.2 4.2h50.8a23.2 23.2 0 0123.2 23.2v12.9h-74zM11 149.4v-27.7h148v27.7z"/><path d="M37 107.2a17.5 17.5 0 1117.5-17.5A17.5 17.5 0 0137 107.2zm0-29a11.5 11.5 0 1011.5 11.5A11.5 11.5 0 0037 78.2z"/></svg>

<svg id="PIKTO_REGULAR" xmlns="http://www.w3.org/2000/svg" viewBox="0 0 170 170"><title>regular_black</title><path d="M159,75.5v40.2h-9.3V102.8a29.2,29.2,0,0,0-29.2-29.2H66.8a3,3,0,0,0-3,3v39.1H11V51.4H5V165h6v-9.6H159V165h6V75.5ZM69.8,79.7h50.8a23.2,23.2,0,0,1,23.2,23.2v12.9h-74ZM11,149.4V121.7H159v27.7Z"/><path d="M37,107.2A17.5,17.5,0,1,1,54.5,89.7h0A17.5,17.5,0,0,1,37,107.2Zm0-29A11.5,11.5,0,1,0,48.5,89.7,11.5,11.5,0,0,0,37,78.2Z"/></svg>
